X:1
T:Title
%%score 1 { 2 | 3 }
L:1/8
Q:1/4=100
M:4/4
K:G
V:1 treble nm="Grand Piano, Soprano"
V:2 treble nm="Choir Pad, Bass"
V:3 bass 
V:1
 D>[DG] [GB]2 [GB]>[GB] [Gc][GB] | [DA][DG]E[DG]- [DG]3/2 z/ z G- | %2
w: By~Herbert~Howard~Booth * * * * * *||
 G/[GA]/ [GB]2 [GB]- [GB]/[Ac]/ [FA]2 [FA]- | [FA]/[FB]/ G3- G2- G/ z/ D- | %4
w: ||
 D/[DG]/ [GB]2 [GB]- [GB]/[GB]/[Gc] [GB][DA] | [DG]E .[DG]4 [DG]>[DG] | %6
w: ||
 [EG]2 [EG]>[EG] [Ge]2 [Gd]>[GB] | [FA]6 [FA]2 | [GB]3 [Gc] [Gd]2 [GB]2 | [EA]3 [EG] [DF] [CE]3 | %10
w: ||||
 D2 [Fe]2 [Gd]2 [GB]2 | [FB]3 [FA] G2 z2 | [B,D]2 [B,G]>[CA] [DB]2 [DG]2 | %13
w: |||
 [Ec] [Ge]3 z2 [Ec]>[Ge] | [Gd]2 [GB]>[FA] [EG]2 [DF]>[^CG] | [FA]4 z2 [GB]>[Gc] | %16
w: |||
 [Ge]2 [Gd]>[GB] G2 [FA]>[GB] | [Ed]2 [Ec]>[DB] [CA]2 [CG]>[CE] | D2 [DG]>[DA] [GB]2 [FA]2 | G8 |] %20
w: ||||
V:2
 B,>B, D2 D>D ED | C[K:bass]B,CB,- B,3/2 z/ z B,- | B,/[K:treble]C/ D2 D- D/E/ C2 C- | %3
 C/D/[K:bass] B,3- B,2- B,/ z/ B,- | B,/B,/[K:treble] D2 D- D/D/E DC | B,C .B,4 B,>B, | %6
 B,2 B,>B,[K:treble] C2 B,>D | D6 D2 | D3 A, B,2 D2 | C3 C[K:bass] G, G,3 | F,2 A,2 B,2 D2 | %11
 D3 C B,2 z2 | G,2 G,>G, G,2 G,2 | G, G,3 z2[K:treble] C>C | B,2 D>C[K:bass] B,2 A,>E, | %15
 F,4 z2 G,>A, | C2 B,>D[K:treble] D2 D>D | C2 ^G,>[K:bass]G, A,2 A,>=G, | %18
 F,[K:treble]C B,>C D2 C2 | B,8 |] %20
V:3
 G,>G, G,2 G,>G, G,G, | G,G,G,G,- G,3/2 z/ z G,- | G,/G,/ G,2 G,- G,/G,/ D,2 D,- | %3
 D,/D,/ G,3- G,2- G,/ z/ G,- | G,/G,/ G,2 G,- G,/G,/G, G,G, | G,G, .G,4 G,>G, | %6
 E,2 E,>E, C,2 G,>G, | D,6 D,2 | G,3 G, G,2 G,2 | C,3 C, C, C,3 | C,2 C,2 B,,2 G,,2 | %11
 D,3 D, G,2 z2 | G,,2 G,,>G,, G,,2 B,,2 | C, C,3 z2 C,>C, | G,2 D,>D, E,2 z z/ A,,/ | %15
 D,4 z2 z z/ G,/ | G,2 G,>G, B,2 A,>G, | C,2 E,>E, z2 A,,>A,, | D,2 D,>D, D,2 D,2 | G,8 |] %20

